img/divider-2.svg

<svg fill="none" height="5" viewBox="0 0 70 5" width="70" xmlns="http://www.w3.org/2000/svg"><path d="m49.5261.303955c2.8823.007908 5.4523-.031629 8.0164.128501 3.7265.231298 7.4569.460619 11.0529 1.599314.2708.08501.7532.07315.7235.4112-.0375.42504-.5199.25502-.8125.28072-2.3901.20165-4.7624-.11268-7.1406-.28467-1.3423-.09687-2.6866-.18188-4.0309-.2313-5.2428-.19374-10.4855-.18781-15.7303-.10082-3.1749.05337-6.3518.17001-9.5247.32223-4.4817.21549-8.9594.4883-13.4371.73739-2.5264.14036-5.0529.25107-7.5755.43492-3.32513.24316-6.66017.4112-9.96754.86786-.106755.01384-.213507.03756-.32026.0435-.148268.00593-.300492-.00594-.347938-.1799-.045469-.17002.077091-.26491.201637-.34201.215483-.13443.456661-.20362.703781-.25898 2.21018-.49818 4.45793-.75913 6.70172-1.03589 4.9008-.60692 9.8272-.91729 14.7458-1.32453 3.3449-.27677 6.6878-.515978 10.0427-.644477 3.4971-.134429 6.9962-.215481 10.4934-.332119 2.1726-.071169 4.3452-.041514 6.2016-.08896z" fill="#2f221b"/></svg>

<svg width="70" height="5" viewBox="0 0 70 5" fill="none" xmlns="http://www.w3.org/2000/svg">
<path d="M49.5261 0.303955C52.4084 0.311863 54.9784 0.272326 57.5425 0.432456C61.269 0.663754 64.9994 0.893075 68.5954 2.03177C68.8662 2.11678 69.3486 2.10492 69.3189 2.44297C69.2814 2.86801 68.799 2.69799 68.5064 2.72369C66.1163 2.92534 63.744 2.61101 61.3658 2.43902C60.0235 2.34215 58.6792 2.25714 57.3349 2.20772C52.0921 2.01398 46.8494 2.01991 41.6046 2.1069C38.4297 2.16027 35.2528 2.27691 32.0799 2.42913C27.5982 2.64462 23.1205 2.91743 18.6428 3.16652C16.1164 3.30688 13.5899 3.41759 11.0673 3.60144C7.74217 3.8446 4.40713 4.01264 1.09976 4.4693C0.993005 4.48314 0.886253 4.50686 0.7795 4.5128C0.631232 4.51873 0.479008 4.50686 0.431562 4.3329C0.386093 4.16288 0.508653 4.06799 0.633199 3.99089C0.848682 3.85646 1.08986 3.78727 1.33698 3.73191C3.54716 3.23373 5.79491 2.97278 8.0387 2.69602C12.9395 2.0891 17.8659 1.77873 22.7845 1.37149C26.1294 1.09472 29.4723 0.855512 32.8272 0.727013C36.3243 0.592584 39.8234 0.511532 43.3206 0.394894C45.4932 0.323725 47.6658 0.35338 49.5222 0.305934L49.5261 0.303955Z" fill="#2F221B"/>
</svg>
